;FLAVOR:Marlin
;TIME:8209
;Filament used: 4.98585m
;Layer height: 0.16
;MINX:103.938
;MINY:103.338
;MINZ:0.2
;MAXX:196.062
;MAXY:196.662
;MAXZ:8.88
;TARGET_MACHINE.NAME:Creality CR-10S
;Generated with Cura_SteamEngine 5.7.0
M140 S60
M105
M190 S60
M104 S185
M105
M109 S185
M82 ;absolute extrusion mode
M201 X500.00 Y500.00 Z100.00 E5000.00 ;Setup machine max acceleration
M203 X500.00 Y500.00 Z10.00 E50.00 ;Setup machine max feedrate
M204 P500.00 R1000.00 T500.00 ;Setup Print/Retract/Travel acceleration
M205 X8.00 Y8.00 Z0.40 E5.00 ;Setup Jerk
M220 S100 ;Reset Feedrate
M221 S100 ;Reset Flowrate

G28 ;Home

G92 E0 ;Reset Extruder
G1 Z2.0 F3000 ;Move Z Axis up
G1 X10.1 Y20 Z0.28 F5000.0 ;Move to start position
G1 X10.1 Y200.0 Z0.28 F1500.0 E15 ;Draw the first line
G1 X10.4 Y200.0 Z0.28 F5000.0 ;Move to side a little
G1 X10.4 Y20 Z0.28 F1500.0 E30 ;Draw the second line
G92 E0 ;Reset Extruder
G1 Z2.0 F3000 ;Move Z Axis up

G92 E0
G92 E0
G1 F2700 E-5
;LAYER_COUNT:54
;LAYER:0
M107
G0 F6000 X108.161 Y108.264 Z0.2
;TYPE:SKIRT
G1 F2700 E0
G1 F1200 X109.013 Y107.425 E0.03977
G1 X109.386 Y107.098 E0.05627
G1 X110.307 Y106.374 E0.09523
G1 X110.932 Y105.935 E0.12064
G1 X111.978 Y105.291 E0.16149
G1 X112.711 Y104.914 E0.18891
G1 X113.112 Y104.726 E0.20364
G1 X114.154 Y104.304 E0.24103
G1 X114.68 Y104.124 E0.25952
G1 X115.774 Y103.816 E0.29732
G1 X116.497 Y103.652 E0.32198
G1 X117.385 Y103.492 E0.35199
G1 X118.098 Y103.417 E0.37583
G1 X118.549 Y103.384 E0.39088
G1 X119.124 Y103.359 E0.41002
G1 X120.383 Y103.338 E0.4519
G1 X180.249 Y103.343 E2.44305
G1 X180.783 Y103.358 E2.46082
G1 X181.687 Y103.404 E2.49092
G1 X182.586 Y103.49 E2.52096
G1 X183.257 Y103.602 E2.54359
G1 X183.891 Y103.731 E2.56511
G1 X185.219 Y104.089 E2.61085
G1 X185.826 Y104.297 E2.63219
G1 X187.039 Y104.798 E2.67584
G1 X187.72 Y105.132 E2.70107
G1 X188.538 Y105.58 E2.73209
G1 X189.124 Y105.961 E2.75534
G1 X189.645 Y106.325 E2.77648
G1 X190.693 Y107.16 E2.82105
G1 X191.129 Y107.555 E2.84061
G1 X191.947 Y108.383 E2.87933
G1 X192.308 Y108.794 E2.89752
G1 X193.027 Y109.707 E2.93617
G1 X193.451 Y110.312 E2.96074
G1 X194.103 Y111.369 E3.00205
G1 X194.485 Y112.106 E3.02966
G1 X194.647 Y112.452 E3.04237
G1 X194.995 Y113.272 E3.072
G1 X195.245 Y113.974 E3.09678
G1 X195.349 Y114.302 E3.10822
G1 X195.59 Y115.195 E3.13899
G1 X195.754 Y115.925 E3.16387
G1 X195.913 Y116.814 E3.19391
G1 X195.988 Y117.54 E3.21819
G1 X196.019 Y117.981 E3.23289
G1 X196.041 Y118.523 E3.25093
G1 X196.062 Y119.783 E3.29285
G1 X196.057 Y144.614 E4.11873
G1 X195.936 Y148.121 E4.23544
G1 X195.921 Y150.603 E4.31799
G1 X196.039 Y154.624 E4.45179
G1 X196.062 Y155.981 E4.49693
G1 X196.06 Y180.558 E5.31437
G1 X196.036 Y181.555 E5.34754
G1 X195.993 Y182.358 E5.37428
G1 X195.897 Y183.32 E5.40644
G1 X195.767 Y184.042 E5.43084
G1 X195.641 Y184.627 E5.45074
G1 X195.315 Y185.805 E5.49139
G1 X195.113 Y186.399 E5.51226
G1 X194.601 Y187.643 E5.557
G1 X194.28 Y188.3 E5.58132
G1 X193.847 Y189.092 E5.61135
G1 X193.47 Y189.676 E5.63447
G1 X193.14 Y190.154 E5.65379
G1 X192.428 Y191.068 E5.69232
G1 X191.937 Y191.629 E5.71712
G1 X191.292 Y192.303 E5.74814
G1 X190.779 Y192.766 E5.77113
G1 X190.441 Y193.05 E5.78581
G1 X189.695 Y193.624 E5.81712
G1 X189.034 Y194.089 E5.844
G1 X188.243 Y194.593 E5.87519
G1 X187.429 Y195.02 E5.90577
G1 X186.831 Y195.301 E5.92774
G1 X185.939 Y195.672 E5.95987
G1 X185.068 Y195.957 E5.99036
G1 X184.212 Y196.188 E6.01985
G1 X183.519 Y196.345 E6.04348
G1 X182.603 Y196.509 E6.07443
G1 X181.984 Y196.575 E6.09513
G1 X181.512 Y196.612 E6.11088
G1 X180.877 Y196.641 E6.13202
G1 X179.619 Y196.662 E6.17387
G1 X120.044 Y196.66 E8.15534
G1 X119.041 Y196.636 E8.18871
G1 X118.24 Y196.593 E8.21539
G1 X117.277 Y196.497 E8.24758
G1 X116.553 Y196.366 E8.27205
G1 X115.958 Y196.237 E8.2923
G1 X114.771 Y195.908 E8.33327
G1 X114.12 Y195.686 E8.35615
G1 X113.278 Y195.357 E8.38621
G1 X112.691 Y195.078 E8.40783
G1 X112.123 Y194.788 E8.42904
G1 X111.338 Y194.342 E8.45907
G1 X110.445 Y193.737 E8.49495
G1 X109.74 Y193.204 E8.52434
G1 X109.206 Y192.75 E8.54765
G1 X108.831 Y192.411 E8.56447
G1 X108.188 Y191.777 E8.5945
G1 X107.544 Y191.034 E8.6272
G1 X106.964 Y190.282 E8.65879
G1 X106.537 Y189.671 E8.68358
G1 X106.027 Y188.867 E8.71525
G1 X105.691 Y188.24 E8.73891
G1 X105.406 Y187.659 E8.76043
G1 X104.882 Y186.39 E8.8061
G1 X104.713 Y185.892 E8.82359
G1 X104.386 Y184.714 E8.86425
G1 X104.233 Y184.007 E8.88831
G1 X104.071 Y183.059 E8.9203
G1 X104.013 Y182.463 E8.94022
G1 X103.982 Y182.027 E8.95475
G1 X103.959 Y181.477 E8.97306
G1 X103.938 Y180.219 E9.01491
G1 X103.94 Y155.644 E9.83228
G1 X103.957 Y154.736 E9.86248
G1 X103.986 Y154.088 E9.88406
G1 X104.066 Y151.528 E9.96924
G1 X104.074 Y149.026 E10.05246
G1 X103.959 Y145.276 E10.17725
G1 X103.938 Y144.016 E10.21916
G1 X103.943 Y119.178 E11.04527
G1 X103.958 Y118.65 E11.06284
G1 X104.008 Y117.658 E11.09588
G1 X104.101 Y116.694 E11.12809
G1 X104.242 Y115.907 E11.15468
G1 X104.359 Y115.369 E11.173
G1 X104.691 Y114.171 E11.21434
G1 X104.909 Y113.532 E11.2368
G1 X105.237 Y112.691 E11.26682
G1 X105.531 Y112.071 E11.28965
G1 X105.782 Y111.583 E11.3079
G1 X106.138 Y110.948 E11.33211
G1 X106.631 Y110.176 E11.36258
G1 X106.932 Y109.747 E11.38001
G1 X107.764 Y108.702 E11.42443
G1 X108.161 Y108.264 E11.4441
G0 F6000 X108.442 Y108.549
G1 F1200 X109.277 Y107.726 E11.48309
G1 X109.65 Y107.399 E11.49959
G1 X110.537 Y106.701 E11.53713
G1 X111.142 Y106.276 E11.56172
G1 X112.188 Y105.632 E11.60258
G1 X112.881 Y105.276 E11.62849
G1 X113.262 Y105.097 E11.64249
G1 X114.304 Y104.675 E11.67988
G1 X114.789 Y104.509 E11.69693
G1 X115.862 Y104.206 E11.73401
G1 X116.568 Y104.046 E11.75809
G1 X117.456 Y103.886 E11.7881
G1 X118.127 Y103.816 E11.81054
G1 X118.567 Y103.784 E11.82521
G1 X119.131 Y103.759 E11.84399
G1 X120.383 Y103.738 E11.88564
G1 X180.238 Y103.743 E13.87642
G1 X180.763 Y103.757 E13.89389
G1 X181.649 Y103.802 E13.9234
G1 X182.548 Y103.888 E13.95344
G1 X183.178 Y103.994 E13.97468
G1 X183.787 Y104.117 E13.99535
G1 X185.09 Y104.468 E14.04023
G1 X185.673 Y104.667 E14.06072
G1 X186.886 Y105.168 E14.10437
G1 X187.528 Y105.483 E14.12816
G1 X188.32 Y105.916 E14.15818
G1 X188.895 Y106.289 E14.18097
G1 X189.396 Y106.638 E14.20128
G1 X190.425 Y107.457 E14.24502
G1 X190.844 Y107.836 E14.26381
G1 X191.662 Y108.664 E14.30253
G1 X191.994 Y109.041 E14.31923
G1 X192.699 Y109.937 E14.35715
G1 X193.123 Y110.542 E14.38173
G1 X193.748 Y111.553 E14.42126
G1 X194.123 Y112.276 E14.44835
G1 X194.279 Y112.608 E14.46055
G1 X194.618 Y113.406 E14.48939
G1 X194.864 Y114.095 E14.51372
G1 X194.963 Y114.406 E14.52457
G1 X195.2 Y115.283 E14.55479
G1 X195.36 Y115.995 E14.57906
G1 X195.519 Y116.884 E14.6091
G1 X195.589 Y117.568 E14.63197
G1 X195.619 Y117.997 E14.64627
G1 X195.641 Y118.53 E14.66401
G1 X195.662 Y119.783 E14.7057
G1 X195.657 Y144.6 E15.53111
G1 X195.536 Y148.107 E15.64782
G1 X195.521 Y150.601 E15.73078
G1 X195.639 Y154.631 E15.86487
G1 X195.662 Y155.981 E15.90978
G1 X195.66 Y180.549 E16.72692
G1 X195.637 Y181.534 E16.75969
G1 X195.595 Y182.319 E16.78583
G1 X195.503 Y183.249 E16.81692
G1 X195.376 Y183.958 E16.84087
G1 X195.255 Y184.521 E16.86002
G1 X194.936 Y185.676 E16.89988
G1 X194.734 Y186.27 E16.92075
G1 X194.231 Y187.491 E16.96467
G1 X193.929 Y188.108 E16.98752
G1 X193.496 Y188.9 E17.01754
G1 X193.141 Y189.449 E17.03928
G1 X192.824 Y189.908 E17.05784
G1 X192.112 Y190.822 E17.09637
G1 X191.648 Y191.352 E17.1198
G1 X191.003 Y192.026 E17.15083
G1 X190.521 Y192.46 E17.1724
G1 X190.197 Y192.733 E17.18649
G1 X189.465 Y193.297 E17.21723
G1 X188.818 Y193.752 E17.24353
G1 X188.057 Y194.239 E17.27358
G1 X187.259 Y194.658 E17.30356
G1 X186.677 Y194.932 E17.32496
G1 X185.814 Y195.292 E17.35606
G1 X184.964 Y195.571 E17.38581
G1 X184.124 Y195.798 E17.41475
G1 X183.448 Y195.951 E17.43781
G1 X182.56 Y196.111 E17.46782
G1 X181.953 Y196.176 E17.48812
G1 X181.493 Y196.212 E17.50347
G1 X180.87 Y196.241 E17.52421
G1 X179.619 Y196.262 E17.56583
G1 X120.053 Y196.26 E19.547
G1 X119.062 Y196.237 E19.57997
G1 X118.279 Y196.195 E19.60605
G1 X117.348 Y196.103 E19.63717
G1 X116.637 Y195.975 E19.66119
G1 X116.065 Y195.852 E19.68065
G1 X114.9 Y195.529 E19.72086
G1 X114.266 Y195.313 E19.74314
G1 X113.424 Y194.984 E19.77321
G1 X112.873 Y194.722 E19.7935
G1 X112.321 Y194.44 E19.81412
G1 X111.536 Y193.994 E19.84415
G1 X110.686 Y193.418 E19.8783
G1 X109.999 Y192.899 E19.90693
G1 X109.474 Y192.453 E19.92985
G1 X109.112 Y192.126 E19.94607
G1 X108.469 Y191.492 E19.9761
G1 X107.861 Y190.79 E20.00699
G1 X107.292 Y190.052 E20.03799
G1 X106.875 Y189.457 E20.06215
G1 X106.365 Y188.653 E20.09382
G1 X106.05 Y188.063 E20.11607
G1 X105.776 Y187.506 E20.13671
G1 X105.261 Y186.261 E20.18152
G1 X105.092 Y185.763 E20.19901
G1 X104.777 Y184.629 E20.23816
G1 X104.627 Y183.939 E20.26165
G1 X104.469 Y183.02 E20.29266
G1 X104.412 Y182.435 E20.31221
G1 X104.382 Y182.01 E20.32638
G1 X104.359 Y181.47 E20.34436
G1 X104.338 Y180.219 E20.38597
G1 X104.34 Y155.652 E21.20307
G1 X104.357 Y154.754 E21.23295
G1 X104.386 Y154.106 E21.25452
G1 X104.466 Y151.54 E21.33991
G1 X104.474 Y149.027 E21.42349
G1 X104.359 Y145.269 E21.54854
G1 X104.338 Y144.016 E21.59022
G1 X104.343 Y119.189 E22.41597
G1 X104.357 Y118.67 E22.43324
G1 X104.406 Y117.696 E22.46567
G1 X104.495 Y116.764 E22.49681
G1 X104.633 Y115.992 E22.5229
G1 X104.75 Y115.454 E22.54121
G1 X105.07 Y114.3 E22.58104
G1 X105.282 Y113.677 E22.60293
G1 X105.61 Y112.836 E22.63295
G1 X105.886 Y112.254 E22.65438
G1 X106.131 Y111.779 E22.67215
G1 X106.487 Y111.144 E22.69637
G1 X106.959 Y110.405 E22.72553
G1 X107.245 Y109.996 E22.74213
G1 X108.061 Y108.97 E22.78573
G1 X108.442 Y108.549 E22.80462
G0 F6000 X108.723 Y108.834
G1 F1200 X109.558 Y108.011 E22.84361
G1 X109.897 Y107.713 E22.85862
G1 X110.767 Y107.028 E22.89545
G1 X111.352 Y106.617 E22.91923
G1 X112.398 Y105.973 E22.96009
G1 X113.051 Y105.638 E22.9845
G1 X113.412 Y105.468 E22.99777
G1 X114.454 Y105.046 E23.03516
G1 X114.898 Y104.894 E23.05077
G1 X115.95 Y104.596 E23.08714
G1 X116.639 Y104.44 E23.11063
G1 X117.527 Y104.28 E23.14064
G1 X118.156 Y104.215 E23.16167
G1 X118.585 Y104.184 E23.17598
G1 X119.138 Y104.159 E23.19439
G1 X120.383 Y104.138 E23.23581
G1 X180.228 Y104.143 E25.22626
G1 X180.743 Y104.156 E25.24339
G1 X181.611 Y104.2 E25.2723
G1 X182.51 Y104.286 E25.30234
G1 X183.099 Y104.386 E25.32221
G1 X183.683 Y104.503 E25.34202
G1 X184.961 Y104.847 E25.38604
G1 X185.52 Y105.037 E25.40568
G1 X186.733 Y105.538 E25.44933
G1 X187.336 Y105.834 E25.47167
G1 X188.128 Y106.267 E25.50169
G1 X188.667 Y106.617 E25.52306
G1 X189.147 Y106.951 E25.54251
G1 X190.157 Y107.754 E25.58543
G1 X190.559 Y108.117 E25.60344
G1 X191.377 Y108.945 E25.64216
G1 X191.68 Y109.289 E25.6574
G1 X192.372 Y110.167 E25.69459
G1 X192.783 Y110.752 E25.71837
G1 X193.408 Y111.763 E25.7579
G1 X193.761 Y112.447 E25.7835
G1 X193.911 Y112.765 E25.79519
G1 X194.241 Y113.541 E25.82324
G1 X194.483 Y114.216 E25.84709
G1 X194.577 Y114.511 E25.85739
G1 X194.81 Y115.371 E25.88702
G1 X194.966 Y116.065 E25.91068
G1 X195.125 Y116.954 E25.94072
G1 X195.19 Y117.596 E25.96218
G1 X195.219 Y118.014 E25.97612
G1 X195.241 Y118.537 E25.99353
G1 X195.262 Y119.783 E26.03498
G1 X195.257 Y144.586 E26.85993
G1 X195.136 Y148.093 E26.97664
G1 X195.121 Y150.599 E27.05999
G1 X195.239 Y154.638 E27.19439
G1 X195.262 Y155.981 E27.23906
G1 X195.26 Y180.54 E28.0559
G1 X195.238 Y181.513 E28.08827
G1 X195.197 Y182.28 E28.11381
G1 X195.109 Y183.179 E28.14386
G1 X194.985 Y183.874 E28.16734
G1 X194.869 Y184.415 E28.18574
G1 X194.557 Y185.548 E28.22483
G1 X194.364 Y186.118 E28.24484
G1 X193.861 Y187.339 E28.28876
G1 X193.578 Y187.916 E28.31014
G1 X193.145 Y188.708 E28.34016
G1 X192.812 Y189.222 E28.36053
G1 X192.508 Y189.662 E28.37832
G1 X191.796 Y190.576 E28.41685
G1 X191.359 Y191.076 E28.43894
G1 X190.735 Y191.729 E28.46898
G1 X190.263 Y192.154 E28.49011
G1 X189.953 Y192.416 E28.50361
G1 X189.235 Y192.97 E28.53377
G1 X188.602 Y193.415 E28.5595
G1 X187.841 Y193.902 E28.58955
G1 X187.088 Y194.296 E28.61782
G1 X186.522 Y194.563 E28.63864
G1 X185.689 Y194.912 E28.66867
G1 X184.86 Y195.185 E28.6977
G1 X184.036 Y195.408 E28.7261
G1 X183.377 Y195.557 E28.74857
G1 X182.489 Y195.717 E28.77858
G1 X181.922 Y195.777 E28.79754
G1 X181.474 Y195.812 E28.81249
G1 X180.863 Y195.841 E28.83283
G1 X179.619 Y195.862 E28.87421
G1 X120.062 Y195.86 E30.85509
G1 X119.083 Y195.838 E30.88766
G1 X118.318 Y195.797 E30.91314
G1 X117.419 Y195.709 E30.94318
G1 X116.721 Y195.584 E30.96677
G1 X116.172 Y195.466 E30.98544
G1 X115.029 Y195.15 E31.02489
G1 X114.412 Y194.94 E31.04656
G1 X113.57 Y194.611 E31.07663
G1 X113.055 Y194.366 E31.0956
G1 X112.519 Y194.092 E31.11562
G1 X111.734 Y193.646 E31.14565
G1 X110.927 Y193.099 E31.17808
G1 X110.258 Y192.594 E31.20596
G1 X109.742 Y192.156 E31.22847
G1 X109.393 Y191.841 E31.2441
G1 X108.75 Y191.207 E31.27414
G1 X108.178 Y190.546 E31.30321
G1 X107.62 Y189.822 E31.33361
G1 X107.203 Y189.227 E31.35778
G1 X106.718 Y188.465 E31.38782
G1 X106.409 Y187.886 E31.40965
G1 X106.146 Y187.353 E31.42942
G1 X105.631 Y186.108 E31.47423
G1 X105.471 Y185.635 E31.49084
G1 X105.168 Y184.544 E31.5285
G1 X105.021 Y183.871 E31.55141
G1 X104.867 Y182.981 E31.58145
G1 X104.811 Y182.407 E31.60063
G1 X104.782 Y181.993 E31.61444
G1 X104.759 Y181.463 E31.63208
G1 X104.738 Y180.219 E31.67346
G1 X104.74 Y155.66 E32.4903
G1 X104.757 Y154.772 E32.51984
G1 X104.786 Y154.124 E32.54141
G1 X104.866 Y151.552 E32.627
G1 X104.874 Y149.028 E32.71095
G1 X104.759 Y145.262 E32.83626
G1 X104.738 Y144.016 E32.87771
G1 X104.743 Y119.199 E33.70313
G1 X104.756 Y118.69 E33.72006
G1 X104.804 Y117.734 E33.7519
G1 X104.889 Y116.834 E33.78197
G1 X105.024 Y116.077 E33.80754
G1 X105.141 Y115.539 E33.82586
G1 X105.449 Y114.429 E33.86417
G1 X105.655 Y113.822 E33.88549
G1 X105.983 Y112.981 E33.91551
G1 X106.242 Y112.437 E33.93555
G1 X106.48 Y111.974 E33.95287
G1 X106.824 Y111.359 E33.9763
G1 X107.287 Y110.634 E34.00492
G1 X107.558 Y110.245 E34.02068
G1 X108.358 Y109.238 E34.06346
G1 X108.723 Y108.834 E34.08157
G1 F2700 E29.08157
;MESH:pizerohingedcase_lowprofile.stl
G0 F6000 X118.166 Y114.176
G0 X118.513 Y115.202
G0 X116.831 Y117.35
G0 X116.524 Y118.089
G0 X116.413 Y118.946
G0 X116.438 Y145.302
G0 X116.648 Y146.074
G0 X117.049 Y146.769
G0 X117.623 Y147.346
G0 X118.323 Y147.751
G0 X119.097 Y147.957
G0 X180.459 Y148.144
;TYPE:WALL-INNER
G1 F2700 E34.08157
G1 F1200 X180.922 Y148.117 E34.09699
G1 X181.338 Y148.032 E34.11112
G1 X181.735 Y147.898 E34.12505
G1 X182.12 Y147.707 E34.13935
G1 X182.472 Y147.475 E34.15337
G1 X182.791 Y147.195 E34.16749
G1 X183.075 Y146.871 E34.18182
G1 X183.311 Y146.522 E34.19583
G1 X183.496 Y146.141 E34.20992
G1 X183.629 Y145.744 E34.22384
G1 X183.717 Y145.324 E34.23811
G1 X183.744 Y144.859 E34.25361
G1 X183.744 Y118.937 E35.11578
G1 X183.717 Y118.474 E35.1312
G1 X183.632 Y118.056 E35.14539
G1 X183.5 Y117.661 E35.15924
G1 X183.312 Y117.278 E35.17343
G1 X183.075 Y116.925 E35.18757
G1 X182.791 Y116.605 E35.2018
G1 X182.471 Y116.322 E35.21601
G1 X182.122 Y116.088 E35.22999
G1 X181.739 Y115.9 E35.24418
G1 X181.344 Y115.768 E35.25803
G1 X180.923 Y115.682 E35.27232
G1 X180.456 Y115.652 E35.28789
G1 X119.537 Y115.652 E37.31406
G1 X119.074 Y115.679 E37.32949
G1 X118.659 Y115.763 E37.34357
G1 X118.263 Y115.898 E37.35748
G1 X117.872 Y116.089 E37.37196
G1 X117.523 Y116.324 E37.38595
G1 X117.205 Y116.601 E37.39998
G1 X116.924 Y116.922 E37.41417
G1 X116.692 Y117.27 E37.42808
G1 X116.499 Y117.66 E37.44255
G1 X116.368 Y118.047 E37.45614
G1 X116.282 Y118.476 E37.47069
G1 X116.252 Y118.94 E37.48616
G1 X116.252 Y144.859 E38.34823
G1 X116.279 Y145.322 E38.36365
G1 X116.363 Y145.737 E38.37773
G1 X116.499 Y146.135 E38.39172
G1 X116.685 Y146.518 E38.40589
G1 X116.922 Y146.867 E38.41992
G1 X117.203 Y147.189 E38.43413
G1 X117.525 Y147.474 E38.44843
G1 X117.875 Y147.708 E38.46244
G1 X118.261 Y147.9 E38.47678
G1 X118.648 Y148.028 E38.49033
G1 X119.076 Y148.117 E38.50487
G1 X119.537 Y148.144 E38.52023
G1 X180.459 Y148.144 E40.54651
G0 F6000 X180.471 Y148.544
G1 F1200 X180.974 Y148.515 E40.56326
G1 X181.443 Y148.419 E40.57919
G1 X181.889 Y148.268 E40.59485
G1 X182.32 Y148.054 E40.61085
